svg/pin.svg

<svg width="24" height="24" viewBox="0 0 24 24" fill="none" xmlns="http://www.w3.org/2000/svg">
<path d="M6 10.5994V4C5.44772 4 5 3.55228 5 3C5 2.44772 5.44772 2 6 2H18C18.5523 2 19 2.44772 19 3C19 3.55228 18.5523 4 18 4V10.5994C18.9318 11.6201 19.4321 12.6341 19.6987 13.4338C19.8447 13.8719 19.9199 14.2435 19.9587 14.5148C19.9781 14.6506 19.9884 14.7615 19.9939 14.8436C19.9966 14.8847 19.9981 14.9186 19.999 14.9448L19.9996 14.9682L19.9998 14.9783L20 14.9907L20 14.9957L20 14.9979L20 14.999C20 14.999 19.9954 14.8677 20 15C20 15.5523 19.5523 16 19 16H13V21C13 21.5523 12.5523 22 12 22C11.4477 22 11 21.5523 11 21V16H5C4.44772 16 4 15.5523 4 15C4 14.5 4 14.999 4 14.999L4 14.9979L4.00001 14.9957L4.00004 14.9907L4.00019 14.9783C4.00033 14.9691 4.00059 14.9579 4.00101 14.9448C4.00185 14.9186 4.00338 14.8847 4.00612 14.8436C4.01159 14.7615 4.02191 14.6506 4.0413 14.5148C4.08006 14.2435 4.15528 13.8719 4.30132 13.4338C4.56788 12.6341 5.06824 11.6201 6 10.5994ZM16 4H8V11C8 11.2652 7.89464 11.5196 7.70711 11.7071C6.86009 12.5541 6.43577 13.3854 6.22128 14H17.7787C17.5642 13.3854 17.1399 12.5541 16.2929 11.7071C16.1054 11.5196 16 11.2652 16 11V4Z" fill="#0D0D0D"/>
</svg>

<svg width="24" height="24" fill="none" xmlns="http://www.w3.org/2000/svg"><path d="M6 10.6V4a1 1 0 010-2h12a1 1 0 110 2v6.6c.932 1.02 1.432 2.034 1.699 2.834.146.438.22.81.26 1.08a4.43 4.43 0 01.04.43v.034l.001.013v.008s-.005-.131 0 .001a1 1 0 01-1 1h-6v5a1 1 0 11-2 0v-5H5a1 1 0 01-1-1v-.022a2.013 2.013 0 01.006-.134c.006-.082.016-.193.035-.33.04-.27.114-.642.26-1.08.267-.8.767-1.814 1.699-2.835zM16 4H8v7a1 1 0 01-.293.707c-.847.847-1.271 1.678-1.486 2.293H17.78c-.215-.615-.64-1.446-1.486-2.293A1 1 0 0116 11V4z" fill="#0D0D0D"/></svg>
